X: 26
T: Unto Us A Child Is Born
B: christmas songs
M:3/4
Q: 1/4=100
K:D
V:1 
z2 z A AG |  "D"F4 F2|  "D7"(F2G2) A2|  "G"G6- | G4 Bd |"A7"c4 c2 |  "Em"B4 c2 |"D"B2 A4- | "D7"A4 AA |
"G"B4 d2|  g4 d2 |  "D"f6/2 ^e fd | B2 A2 Ad |"A7"c4 cc |  B4 cB|  "D"A4 BA | "A7"G6/2 G AG |
"D"(F4 G2 |  "D7"A4) A2 |"G"B4 d2 | g4 d2|"D"(f6/2 ^e fd) |  "D7"A4 A d |  "A7"c4 c2 | "Em"B4 c2 |
"D"d6-| yyd6 | z6 |]
W: For unto us a Child is born,
W: To us a Son is giv'n;
W: The government shall rest on Him,
W: Th' anointed One from Heav'n.
W: His name is Wonderful Counselor,
W: The Mighty God is He,
W: The Everlasting Father,
W: The humble Prince of Peace.
W: 
W: The increase of His government
W: And peace shall never end;
W: He'll reign on David's ancient throne
W: As ruler of all men.
W: Upheld with justice and righteousness,
W: Forever His kingdom will last;
W: The zeal of the Lord God Most High
W: Will bring these things to pass.
W: 
W: Lord Jesus, come now and reign in me,
W: Be Lord of my life this hour.
W: Come be my Counselor and my God,
W: My source of wisdom and power.
W: Watch o'er me with Your Father care,
W: My heart and my mind, fill with peace.
W: I worship You, my Lord and King,
W: My praise will never cease.
% abcbook-tune_id 6344381b4db2af24465ceea4
% abcbook-link-0 https://www.youtube.com/watch?v=FJ9wS2J0GOs
% abcbook-link-title-0 Handel&#39;s Messiah: For Unto us a Child is Born, Tabernacle Choir

% abcbook-boost 0
% abcbook-tablature 
% abcbook-transpose 
% abcbook-lastupdated 1673487216740
% abcbook-soundfonts 
% abcbook-repeats 1


